fs/table_move_below_24_regular.svg

<svg viewBox="0 0 24 24" fill="none" xmlns="http://www.w3.org/2000/svg" height="1em" width="1em">
  <path d="M3.75 15.5C3.33579 15.5 3 15.1642 3 14.75V6.25C3 4.45508 4.45507 3 6.25 3H17.75C19.5449 3 21 4.45508 21 6.25V14.75C21 15.1642 20.6642 15.5 20.25 15.5H15.9821C16.0529 15.0075 15.9144 14.4883 15.558 14.0874C15.1525 13.6312 14.562 13.4372 14 13.5178V10L10 10V13.5178C9.43797 13.4372 8.8475 13.6312 8.44205 14.0874C8.08563 14.4883 7.9471 15.0075 8.01793 15.5H3.75ZM10 8.5L14 8.5V4.5L10 4.5V8.5ZM19.5 14V10H15.5V14H19.5ZM15.5 8.5H19.5V6.25C19.5 5.2835 18.7165 4.5 17.75 4.5L15.5 4.5V8.5ZM8.5 4.5L6.25 4.5C5.2835 4.5 4.5 5.2835 4.5 6.25L4.5 8.5H8.5V4.5ZM4.5 14H8.5V10H4.5L4.5 14ZM3.75 19.5C3.33579 19.5 3 19.8358 3 20.25C3 20.6642 3.33579 21 3.75 21H20.25C20.6642 21 21 20.6642 21 20.25C21 19.8358 20.6642 19.5 20.25 19.5H3.75ZM9.18945 14.7517C9.46464 14.4421 9.93869 14.4143 10.2483 14.6894L11.25 15.5799V12.75C11.25 12.3358 11.5858 12 12 12C12.4142 12 12.75 12.3358 12.75 12.75V15.5799L13.7517 14.6894C14.0613 14.4143 14.5354 14.4421 14.8106 14.7517C15.0858 15.0613 15.0579 15.5354 14.7483 15.8106L12.4983 17.8106C12.2141 18.0631 11.7859 18.0631 11.5017 17.8106L9.25174 15.8106C8.94215 15.5354 8.91426 15.0613 9.18945 14.7517Z" fill="#212121"/>
</svg>

<svg viewBox="0 0 24 24" fill="none" xmlns="http://www.w3.org/2000/svg" height="1em" width="1em">
  <path d="M3.75 15.5a.75.75 0 0 1-.75-.75v-8.5A3.25 3.25 0 0 1 6.25 3h11.5A3.25 3.25 0 0 1 21 6.25v8.5a.75.75 0 0 1-.75.75h-4.268A1.748 1.748 0 0 0 14 13.518V10h-4v3.518A1.748 1.748 0 0 0 8.018 15.5H3.75Zm6.25-7h4v-4h-4v4Zm9.5 5.5v-4h-4v4h4Zm-4-5.5h4V6.25a1.75 1.75 0 0 0-1.75-1.75H15.5v4Zm-7-4H6.25A1.75 1.75 0 0 0 4.5 6.25V8.5h4v-4Zm-4 9.5h4v-4h-4v4Zm-.75 5.5a.75.75 0 0 0 0 1.5h16.5a.75.75 0 0 0 0-1.5H3.75Zm5.44-4.748a.75.75 0 0 1 1.058-.063l1.002.89V12.75a.75.75 0 0 1 1.5 0v2.83l1.002-.89a.75.75 0 0 1 .996 1.12l-2.25 2a.75.75 0 0 1-.996 0l-2.25-2a.75.75 0 0 1-.063-1.058Z" fill="#212121"/>
</svg>
